bitrix/js/ui/buttons/icons/images/ui-business-process-black.svg

<svg xmlns="http://www.w3.org/2000/svg" width="26" height="26" viewBox="0 0 26 26"><path fill-rule="evenodd" fill="#535C69" d="M16.678 19.202H9.415a2.602 2.602 0 0 1-2.594-2.593v-.744h3.702l-4.32-4.32-4.318 4.32h3.173v.643a4.481 4.481 0 0 0 4.468 4.468h7.042a4.482 4.482 0 0 0 4.124-2.76l-1.75-.37A2.59 2.59 0 0 1 16.68 19.2M9.415 6.776h7.263a2.6 2.6 0 0 1 2.592 2.593v.66h-3.653l4.318 4.32 4.32-4.32h-3.22v-.562A4.48 4.48 0 0 0 16.568 5H9.526c-1.83 0-3.41 1.116-4.1 2.7l1.76.37a2.589 2.589 0 0 1 2.23-1.294"/></svg>

<svg xmlns="http://www.w3.org/2000/svg" width="26" height="26" viewBox="0 0 26 26"><path fill-rule="evenodd" fill="#535C69" d="M16.678,19.202 L9.415,19.202 C7.989,19.202 6.821,18.035 6.821,16.609 L6.821,15.865 L10.523,15.865 L6.203,11.545 L1.885,15.865 L5.058,15.865 L5.058,16.508 C5.058,18.965 7.068,20.976 9.526,20.976 L16.568,20.976 C18.42,20.976 20.018,19.832 20.692,18.216 L18.942,17.846 C18.498,18.648 17.655,19.2 16.68,19.2 M9.415,6.776 L16.678,6.776 C18.104,6.776 19.27,7.942 19.27,9.369 L19.27,10.029 L15.617,10.029 L19.935,14.349 L24.255,10.029 L21.035,10.029 L21.035,9.467 C21.035,7.01 19.025,5 16.568,5 L9.526,5 C7.696,5 6.116,6.116 5.426,7.7 L7.186,8.07 C7.636,7.302 8.463,6.776 9.416,6.776"/></svg>
